X:1
T:Title
%%score { ( 1 3 ) | ( 2 4 ) }
L:1/8
M:4/4
K:C
V:1 treble nm="Grand Piano"
V:3 treble 
V:2 bass 
V:4 bass 
V:1
 z4 z2[Q:1/4=100] [EG]2 | [Ec]2 [EB]2 [EA]3 [CE] | [EG]>[EA] [EG]>[EA] [FG]>F D>E | F3 G A3 [FB] | %4
 [^Fc]>[FA] [FB]>[Fc] [=Fd]3 [FG] | [Ec]2 [EB]2 [EA]3 [CE] | [EG]>[EA] [EG]>[EA] [FG]>F D>E | %7
 F>E [DF]>[EG] A2 B2 |[M:7/8] [Ec]2 [Fc]2 [Ec]3 |[M:1/8] [EG] | %10
[M:4/4] [Ec]>[EB] [EA]>[EG] [EA]2 [CE]2 | z2 [EG]4 z2 | [Ec]>[EB] [EA]>[EG] [EA]2 [Ec]2 | %13
 [FB]6 z2 | d2 d2 z z/ G/ EG | [Ec]2 [Ec]2 z z/ [Ge]/ [Ge][Ge] | [^Fd]2 [FA]2 [FB]2 [Fc]2 | %17
[M:3/4] d6[K:bass] |[M:1/4][K:treble] G2 |[M:4/4] c2 A2 z4 |[M:3/4] z2 [EG]4 |[M:1/4] G2 | %22
[M:4/4] C>D E>F G2 c2 | c4 A>A A>A | c2 c2 z z/ c/ B>c | [Ge]2 [EG]2 z z/ G/ ^F>G | %26
 [^FA]2 [FA]2 [Fe]2 [Fd]2 | d6[K:bass][K:treble] z2 | c2 c2 z ccc |[M:9/8] c2 c- c2 z ccc | %30
[M:4/4] g8 |[M:9/8] e3 d3 [Ec]3 |] %32
V:2
 z4 z2 [C,C]2 | [C,G,]2 [C,G,]2 [C,C]3 [C,G,] | %2
 [C,C]>[C,C] [^C,_B,]>[C,B,] [D,=B,]>[D,B,D] [F,G,B,]>[E,G,C] | [D,G,D]3 [E,G,C] [F,C]3 [D,G,] | %4
 [D,A,]>[D,C] [D,B,]>[D,A,] [G,B,]3 [G,B,] | [C,C]2 [C,C]2 [C,C]3 [C,G,] | %6
 [C,C]>[C,C] [^C,_B,]>[C,B,] [D,=B,]>[D,B,D] [F,G,B,]>[E,G,C] | %7
 [D,G,B,]>[D,G,B,] [G,,G,]>[G,,G,][K:treble] [G,F]2 [G,F]2 | %8
[M:7/8][K:bass] [C,G,]2 [C,A,]2 [C,G,]3 |[M:1/8] z |[M:4/4] [C,G,]2 [G,,G,]2 [C,G,]2 [G,,G,]2 | %11
 [C,G,]2 [G,,G,]2 C,2 E2 | [C,G,]2 [G,,G,]2 [C,G,]2 [G,,G,]2 | %13
 [D,G,]2 G,,2 D,>[K:treble][G,DF] [G,^CF]>[G,DF] | %14
 [G,B,F]2 [G,B,F]2 z z/[K:bass] [G,CE]/ [G,C][G,CE] | [C,G,]2 [C,G,]2 z z/ [C,C]/ [C,C][C,C] | %16
 [D,A,]2 [D,C]2 [D,B,]2 [D,A,]2 |[M:3/4][K:treble] [B,F]6 |[M:1/4] z2 | %19
[M:4/4][K:bass] [C,G,]2 [G,,G,]2 [C,G,]2 [G,,G,]2 |[M:3/4] [C,G,]2 [G,,G,]2 C,2 |[M:1/4] G,2 | %22
[M:4/4] C,>D, E,>F, G,2 [G,_B,E]2 | [F,F]4- [F,CF]>[F,CF] [F,CF]>[F,CF] | %24
 [^F,A,_E]2 [F,A,E]2 z z/ [G,=E]/ [G,D]>[G,E] | [C,C]2 [C,C]2 z z/ [G,CE]/ [^G,C_E]>[=G,C=E] | %26
 [D,C]2 [D,C]2 [D,A,]2 [D,C]2 | [B,F]6[K:bass] z2 | [CE]2 [_B,CE]2 z[K:treble] [A,CF][A,CF][A,CF] | %29
[M:9/8] [^G,C^F]2 [G,_EF]- [G,EF]2 z [G,E^G][G,EG][G,EG] | %30
[M:4/4] [G,EG][G,E][G,E][G,E] [G,D]3 [G,EG] |[M:9/8] [G,CG]3[K:bass] [G,,B,F]3 [C,C]3 |] %32
V:3
 x8 | x8 | x8 | x8 | x8 | x8 | x8 | x8 |[M:7/8] x7 |[M:1/8] x |[M:4/4] x8 | [EG]2 z2 G,2 G2 | x8 | %13
 z2 G,2 G,>B _B>=B | x8 | x8 | x8 |[M:3/4] z z/[K:bass] G,,/ B,,>D, G,2 |[M:1/4][K:treble] x2 | %19
[M:4/4] E->[EB] E->[EG] [EA]2 [CE]2 |[M:3/4] [EG]2 z2 G,2 |[M:1/4] x2 |[M:4/4] x8 | x8 | x8 | x8 | %26
 x8 | z z/[K:bass] G,,/ B,,>D, G,[K:treble]GGG | x8 |[M:9/8] x9 |[M:4/4] z ccc B3 c |[M:9/8] x9 |] %32
V:4
 x8 | x8 | x8 | x8 | x8 | x8 | x8 | x4[K:treble] x4 |[M:7/8][K:bass] x7 |[M:1/8] x |[M:4/4] x8 | %11
 x8 | x8 | x11/2[K:treble] x5/2 | x11/2[K:bass] x5/2 | x8 | x8 |[M:3/4][K:treble] G,2 z2 z2 | %18
[M:1/4] x2 |[M:4/4][K:bass] x8 |[M:3/4] x6 |[M:1/4] x2 |[M:4/4] x8 | A,4 z4 | x8 | x8 | x8 | %27
 G,2 z2 z[K:bass] G,G,G, | x5[K:treble] x3 |[M:9/8] x9 |[M:4/4] x8 |[M:9/8] x3[K:bass] x6 |] %32

